X: 33524
T: Rainy Day, The
R: reel
M: 4/4
K: Adorian
EAAG ~A3G|(3Bcd ed gedc|BGGF G2dG|~G2dG eGdG|
EAAG ~A3G|BA~A2 (3Bcd ef|~g3e dBGA|1 B2dB A3G:|2 B2dB A3d||
|:eaag ~a3g|ba~a2 bgag|eggf ~g3a|bg~g2 bgag|
ea~a2 aged|(3Bcd ef g2ag|eaag egdG|1 B2dB A3d:|2 B2dB A3G||

